X: 33546
T: Rake, The
R: hornpipe
M: 4/4
K: Gmajor
(3d^c=c|BGDG BGdB|(3gfg (3agf gdBG|FEFG AB (3cBA|d^cde fdcA|
BGDG BGdB|(3gfg (3agf gdBG|(3Bcd gd cAFG|AGGF G2:|
AG|F2D2 D2 dc|B2G2G2 AG|F2D2 d^ced|fed^c d2 AG|
F2D2 D2 dc|B2G2G2 AG|FAdf ed^ce|d4 =c4|
BGDG BGdB|(3gfg (3agf gdBG|FEFG AB (3cBA|d^cde fdcA
BGDG BGdB|(3gfg (3agf gdBG|(3Bcd gd cAFG|AGGF G2||

